material/.icons/material/distribute-horizontal-left.svg

<svg xmlns="http://www.w3.org/2000/svg" viewBox="0 0 24 24"><path d="M21 7v10h-5v5h-2V2h2v5h5M5 2H3v20h2v-3h5V5H5V2z"/></svg>

<?xml version="1.0" encoding="UTF-8"?><!DOCTYPE svg PUBLIC "-//W3C//DTD SVG 1.1//EN" "http://www.w3.org/Graphics/SVG/1.1/DTD/svg11.dtd"><svg xmlns="http://www.w3.org/2000/svg" xmlns:xlink="http://www.w3.org/1999/xlink" version="1.1" id="mdi-distribute-horizontal-left" width="24" height="24" viewBox="0 0 24 24"><path d="M21 7V17H16V22H14V2H16V7H21M5 2H3V22H5V19H10V5H5V2Z" /></svg>
